miniprogram/assets/figma/sa-statusbar-wifi.svg

<svg width="16" height="12" viewBox="0 0 16 12" fill="none" xmlns="http://www.w3.org/2000/svg">
<path d="M5.68524 8.85727C7.02161 7.71968 8.97941 7.71968 10.3158 8.85727C10.3828 8.91844 10.4219 9.00464 10.4238 9.09573C10.4256 9.18694 10.3896 9.27537 10.3249 9.33928L8.23285 11.464C8.17151 11.5264 8.08777 11.5618 8.00051 11.5618C7.91328 11.5618 7.82949 11.5264 7.76817 11.464L5.67505 9.33928C5.61041 9.27534 5.57532 9.18692 5.57722 9.09573C5.57914 9.00468 5.61819 8.91839 5.68524 8.85727ZM2.89306 6.02127C5.77212 3.32597 10.2308 3.32616 13.11 6.02127C13.175 6.08448 13.212 6.17183 13.2129 6.26279C13.2138 6.35365 13.1787 6.44085 13.1151 6.50532L11.9055 7.7353C11.7808 7.8609 11.5799 7.86365 11.452 7.74142C10.5065 6.87974 9.27603 6.40334 8.00051 6.40341C6.72594 6.40397 5.49688 6.88042 4.55207 7.74142C4.42419 7.86371 4.22223 7.86092 4.09757 7.7353L2.88899 6.50532C2.82518 6.44092 2.78933 6.35372 2.79014 6.26279C2.79099 6.1718 2.82803 6.08448 2.89306 6.02127ZM0.100885 3.19445C4.51689 -1.06492 11.4841 -1.06492 15.9001 3.19445C15.9638 3.25768 15.9995 3.34391 16 3.43392C16.0005 3.52409 15.9653 3.61042 15.9022 3.67442L14.6915 4.90542C14.5668 5.03155 14.3637 5.03273 14.2371 4.90848C12.5546 3.29869 10.3219 2.40071 8.00051 2.40061C5.6788 2.40063 3.44563 3.29851 1.76295 4.90848C1.63644 5.03274 1.43417 5.03145 1.30947 4.90542L0.0978282 3.67442C0.0348262 3.6104 -0.000547322 3.52403 0 3.43392C0.000589226 3.34378 0.0370457 3.25766 0.100885 3.19445Z" fill="black"/>
</svg>

<svg xmlns="http://www.w3.org/2000/svg" width="16" height="12" fill="none" viewBox="0 0 16 12"><path fill="#000" d="M5.685 8.857a3.57 3.57 0 0 1 4.63 0 .33.33 0 0 1 .01.482l-2.092 2.125a.326.326 0 0 1-.465 0L5.675 9.339a.333.333 0 0 1 .01-.482M2.893 6.021a7.466 7.466 0 0 1 10.217 0 .34.34 0 0 1 .005.484l-1.21 1.23a.323.323 0 0 1-.453.006 5.12 5.12 0 0 0-3.451-1.338 5.12 5.12 0 0 0-3.449 1.338.324.324 0 0 1-.454-.006l-1.209-1.23a.34.34 0 0 1 .004-.484M.101 3.194a11.365 11.365 0 0 1 15.8 0 .34.34 0 0 1 .001.48l-1.21 1.231a.32.32 0 0 1-.455.003 9.02 9.02 0 0 0-6.236-2.507 9.02 9.02 0 0 0-6.238 2.507.32.32 0 0 1-.454-.003L.098 3.675a.34.34 0 0 1 .003-.48"/></svg>
